X: 1
T:John And Ellen
M:C|
L:1/8
Q:80
C:Scott MacAulay
S:Hornpipe
K:HP
[| {g}A/2e/2{A}e/2A/2{eAfA}eA/2e/2|
{g}e/2g/2{a}f/2d/2{g}e/2d/2{g}B/2A/2|
{g}G/2{d}G/2{g}d/2G/2{g}B/2d/2{e}G/2{d}B/2|  !
{eAfA}e{g}d/2A/2{g}B/2{d}G/2{e}G/2{d}B/2{g}A/2e/2{A}e/2A/2{eAfA}eA/2e/2|

{g}e/2g/2{a}f/2d/2{gef}e{g}f/2g/2|
a{GdG}e/2a/2e/2d/2{g}B/2G/2|  !
{g}A2{GAG}A2| [|
{g}A/2e/2{A}e/2A/2{eAfA}eA/2e/2|
{g}e/2g/2{a}f/2d/2{g}e/2d/2{g}B/2A/2|  !
{g}G/2{d}G/2{g}d/2G/2{g}B/2d/2{e}G/2{d}B/2|
{eAfA}e{g}d/2A/2{g}B/2{d}G/2{e}G/2{d}B/2{g}A/2e/2{A}e/2A/2{eAfA}eA/2e/2|

{g}e/2g/2{a}f/2d/2{gef}e{g}f/2g/2|  !
a{GdG}e/2a/2e/2d/2{g}B/2G/2|
{g}A2{GAG}A{g}e/2g/2|] [|
{ag}aA/2a/2{g}a/2A/2{a}g/2a/2|  !
A/2a/2{g}a/2e/2{a}g/2a/2e/2d/2|
{g}G/2{d}G/2{g}d/2G/2{g}B/2d/2{e}G/2{d}B/2|
{eAfA}e{g}d/2A/2{g}B/2{d}G/2{e}G/2{d}B/2{ag}aA/2a/2{g}a/2A/2{a}g/2a/2|
!
A/2a/2{g}a/2e/2{a}g/2a/2e/2d/2|
a{GdG}e/2a/2e/2d/2{g}B/2G/2|
{g}A2{GAG}A{g}e/2g/2| [|  !
{ag}aA/2a/2{g}a/2A/2{a}g/2a/2|
A/2a/2{g}a/2e/2{a}g/2a/2e/2d/2|
{g}G/2{d}G/2{g}d/2G/2{g}B/2d/2{e}G/2{d}B/2|  !
{eAfA}e{g}d/2A/2{g}B/2{d}G/2{e}G/2{d}B/2{g}A/2e/2{A}e/2A/2{eAfA}eA/2e/2|

{g}e/2g/2{a}f/2d/2{gef}e{g}f/2g/2|
a{GdG}e/2a/2{GdG}e{g}d/2B/2|  !
{g}A2{GAG}A2|]
